public/avatar/hat/207.svg

<svg xmlns:xlink="http://www.w3.org/1999/xlink" height="92.9" width="100.7" xmlns="http://www.w3.org/2000/svg"><use height="22.35" transform="translate(18.35 46.75)" width="40.4" xlink:href="#a"/><defs><g id="a" fill-rule="evenodd"><path d="m11.85 13-.05-.7q-.4-5.05-1.5-7.15Q9.2 3.1-.2 2.25V-3q14.05 0 18 18l.7 2.35q-.35.2-.75.35h-.1l-1.65.65-1 .3-.55-.8q-.8-.65-1.05-1.9l.15-1.9q0-1.45-1.15-1.45l-.55.4" fill="#1c191d" transform="translate(20.3 3)"/><path d="m11.85 13 .55-.4q1.15 0 1.15 1.45l-.15 1.9q.25 1.25 1.05 1.9l.55.8-.45.1-1.25.25-.95-2.75-.35-1.6-.05-.65-.1-1" fill="#403d43" transform="translate(20.3 3)"/><path d="m5.35 4.65.05-.7q0-.6-.5-.6l-1 .55-1.45.3-.95.55Q.85 4.8.65 5H-.2v-6.95q12.75.45 17.35 18.6-1.3.8-4.35 1.25-1.4-8.7-6.7-11.55V6.2q0-1.2-.75-1.55" fill="#fff9f6" transform="translate(20.3 3)"/><path d="m16.95 15.9-3.05.5q-.95-5.45-2.85-9.35-2.25-4.7-11.3-8.2Q1.4-1.8 4.6-.7q2.5.85 3.6 1.75 5.9 4.4 8.75 14.85" fill="#d4d2d4" transform="translate(20.3 3)"/><path d="m-15.2 18.3-1.2-.2-2.2-.65q-.3 0-.4.15l-.25-.1.2-.9Q-14.15-3-.1-3v5.25q-9.35.85-10.5 2.9-1.1 2.1-1.5 7.15v.05q-1.2 1.6-3.1 5.95" fill="#1c191d" transform="translate(20.3 3)"/><path d="M-15.2 18.3q1.9-4.35 3.1-5.95l-.1 1.7-.75 2.4-1 2.25-1.25-.4" fill="#403d43" transform="translate(20.3 3)"/><path d="M.8-.35Q1.7.7 1.7 1.2q0 .65-.9 1.9Q-.1 4.4-.1 5h-.25l-1.25.05-1-.6q-1.2-.8-1.75-.8l-.4.1-.65-.4q-.6 0-.6.55l.2.55-.3 1.75v.05q-5.6 2.7-7 11.65-3.1-.5-4.35-1.25Q-12.85-1.5-.1-1.95q0 .55.9 1.6" fill="#fff9f6" transform="translate(20.3 3)"/><path d="M5.35 3-.3 5.65-6.05 3.4l.3-.5L-.3 4.3l5.6-1.8.05.5" fill="#bfbfbf" transform="translate(20.3 3)"/><path d="M-6.35-1.1-7.5.2q-2.75 3.25-4.15 5.6L-15.3 10l-2.5 3.4q-1.9-2.05-2.4-4.95V8.4q-.55-3.85 2.2-7.35 2.85-3.55 6.7-3.6 2.65-.05 4.8 1.3l.1.1.05.05m.2-.15.2.1.05.05-.25-.15" fill="#1c191d" transform="translate(20.3 3)"/><path d="M-17.4 13.8q.6-1.3 2.5-3.45l3.65-4.3h.05Q-9.85 3.75-7.1.5l1.15-1.3q.3.3.45.85Q-4.25 4.7-8 9.3q-4.05 4.95-8.85 4.6l-.55-.1" fill="#403d43" transform="translate(20.3 3)"/><path d="M-10.4-1.45q1.95.3 3.35 1.3Q-5.55 3.7-9.2 8.2q-3.7 4.5-7.8 4.1-1.2-1.2-1.85-3.15-1.25-3.9 1.6-7.55 2.9-3.6 6.85-3.05" fill="#fff9f6" transform="translate(20.3 3)"/><path d="M11.85-2.15q3.35.4 5.9 3.5 2.9 3.5 2.25 7.45-.5 3-2.4 4.95-.45-1.3-1.6-2.95-2.15-2.7-3-4.15-1.5-2.45-3.85-5.1L6.5-.95q2.55-1.45 5.35-1.2" fill="#1c191d" transform="translate(20.3 3)"/><path d="M15.6 11.1q1.2 1.75 1.55 3.05l-.4.05h-.05q-4.8.4-8.9-4.5-2.3-2.85-2.7-5.95-.3-2 .25-3.6l.05-.1.65-.75q1.1.75 2.75 2.6l3.75 5q.9 1.5 3.05 4.2" fill="#403d43" transform="translate(20.3 3)"/><path d="M16.35 12.65q-4.1.45-7.8-4Q4.8 4.15 6.3.3l3.35-1.35q3.9-.6 6.85 3 2.95 3.65 1.7 7.55-.65 1.95-1.85 3.15" fill="#fff9f6" transform="translate(20.3 3)"/><path d="M-19.25 7q1.05 2.75 3.95 1.65 1.4-.55 5.4-4 3.15-2.8 3.05-1.85-.3 2.8-2.4 5.4-3.7 4.5-7.8 4.1-2.15-2.15-2.2-5.3m35.55 5.7q-2.5.25-5.35-1.75-.15-.1 2.25-2.6 2.95-3.05 3.25-6.4 2.95 3.65 1.7 7.55-.65 1.95-1.85 3.2" fill="#d4d2d4" transform="translate(20.3 3)"/><path d="M-8.05-.75q.2 3.85-3.15 7.65-3.35 3.8-6.8 4l-.75-1.45q2.8-.6 6.05-4.05 3.3-3.45 3.1-6.7l1.55.55M7.4-.3l1.5-.55.35 2q.75 2.5 2.8 4.65 3.3 3.4 6 4l-.7 1.45q-3.4-.2-6.75-3.95-2.1-2.35-2.85-5.2L7.4-.3" fill="red" transform="translate(20.3 3)"/><path d="M-15.3 8.65q1.55-.6 6-4.55-.75 1.55-1.9 2.8-3.35 3.8-6.8 4l-.75-1.45 1.55-.6 1.9-.2M18 9.8l-.7 1.45q-2.45-.35-4.8-2.2l1.45-1.55q2 1.6 4.05 2.3" fill="#c00000" transform="translate(20.3 3)"/><path d="m13.15 13.5 1.25 5.2-1.4.65-.3-1.3V18l-.45-2.35v-.05l-.3-1.25-.3-1.25 1.45.4h.05m-26.55-.15q.45 0 1.45-.55l-.7 6.45-1.5-.5.75-5.4" fill="#403d43" transform="translate(20.3 3)"/><path d="M5.1 2.95v.6l-5.4 2.1-5-1.95-.15-.25 5.05 1.3 5.5-1.8" transform="translate(20.3 3)"/><path d="m2 4.75-.35.1-2.7-4.3 4.25 3.8-1.2.4" fill="#fff9f6" transform="translate(20.3 3)"/></g></defs></svg>

<?xml version="1.0" encoding="UTF-8" standalone="no"?>
<svg xmlns:xlink="http://www.w3.org/1999/xlink" height="92.9px" width="100.7px" xmlns="http://www.w3.org/2000/svg">
  <g transform="matrix(1.0, 0.0, 0.0, 1.0, 38.65, 49.75)">
    <use height="22.35" transform="matrix(1.0, 0.0, 0.0, 1.0, -20.3, -3.0)" width="40.4" xlink:href="#shape0"/>
  </g>
  <defs>
    <g id="shape0" transform="matrix(1.0, 0.0, 0.0, 1.0, 20.3, 3.0)">
      <path d="M11.85 13.0 L11.8 12.3 Q11.4 7.25 10.3 5.15 9.2 3.1 -0.2 2.25 L-0.2 -3.0 Q13.85 -3.0 17.8 15.0 L18.5 17.35 Q18.15 17.55 17.75 17.7 L17.65 17.7 16.0 18.35 15.0 18.65 14.45 17.85 Q13.65 17.2 13.4 15.95 L13.55 14.05 Q13.55 12.6 12.4 12.6 L11.85 13.0" fill="#1c191d" fill-rule="evenodd" stroke="none"/>
      <path d="M11.85 13.0 L12.4 12.6 Q13.55 12.6 13.55 14.05 L13.4 15.95 Q13.65 17.2 14.45 17.85 L15.0 18.65 14.55 18.75 13.3 19.0 12.35 16.25 12.0 14.65 11.95 14.0 11.85 13.0" fill="#403d43" fill-rule="evenodd" stroke="none"/>
      <path d="M5.35 4.65 L5.4 3.95 Q5.4 3.35 4.9 3.35 L3.9 3.9 2.45 4.2 1.5 4.75 Q0.85 4.8 0.65 5.0 L0.05 5.0 -0.2 5.0 -0.2 -1.95 Q12.55 -1.5 17.15 16.65 15.85 17.45 12.8 17.9 11.4 9.2 6.1 6.35 L6.1 6.2 Q6.1 5.0 5.35 4.65" fill="#fff9f6" fill-rule="evenodd" stroke="none"/>
      <path d="M16.95 15.9 L13.9 16.4 Q12.95 10.95 11.05 7.05 8.8 2.35 -0.25 -1.15 1.4 -1.8 4.6 -0.7 7.1 0.15 8.2 1.05 14.1 5.45 16.95 15.9" fill="#d4d2d4" fill-rule="evenodd" stroke="none"/>
      <path d="M-15.2 18.3 L-16.4 18.1 -18.6 17.45 Q-18.9 17.45 -19.0 17.6 L-19.25 17.5 -19.05 16.6 Q-14.15 -3.0 -0.1 -3.0 L-0.1 2.25 Q-9.45 3.1 -10.6 5.15 -11.7 7.25 -12.1 12.3 L-12.1 12.35 Q-13.3 13.95 -15.2 18.3" fill="#1c191d" fill-rule="evenodd" stroke="none"/>
      <path d="M-15.2 18.3 Q-13.3 13.95 -12.1 12.35 L-12.2 14.05 -12.95 16.45 -13.95 18.7 -15.2 18.3" fill="#403d43" fill-rule="evenodd" stroke="none"/>
      <path d="M0.8 -0.35 Q1.7 0.7 1.7 1.2 1.7 1.85 0.8 3.1 -0.1 4.4 -0.1 5.0 L-0.35 5.0 -1.6 5.05 -2.6 4.45 Q-3.8 3.65 -4.35 3.65 L-4.75 3.75 -5.4 3.35 Q-6.0 3.35 -6.0 3.9 L-5.8 4.45 -6.1 6.2 -6.1 6.25 Q-11.7 8.95 -13.1 17.9 -16.2 17.4 -17.45 16.65 -12.85 -1.5 -0.1 -1.95 -0.1 -1.4 0.8 -0.35" fill="#fff9f6" fill-rule="evenodd" stroke="none"/>
      <path d="M5.35 3.0 L-0.3 5.65 -6.05 3.4 -5.75 2.9 -0.3 4.3 5.3 2.5 5.35 3.0" fill="#bfbfbf" fill-rule="evenodd" stroke="none"/>
      <path d="M-6.35 -1.1 L-7.5 0.2 Q-10.25 3.45 -11.65 5.8 L-15.3 10.0 -17.8 13.4 Q-19.7 11.35 -20.2 8.45 L-20.2 8.4 Q-20.75 4.55 -18.0 1.05 -15.15 -2.5 -11.3 -2.55 -8.65 -2.6 -6.5 -1.25 L-6.4 -1.15 -6.35 -1.1 M-6.15 -1.25 L-5.95 -1.15 -5.9 -1.1 -6.15 -1.25" fill="#1c191d" fill-rule="evenodd" stroke="none"/>
      <path d="M-17.4 13.8 Q-16.8 12.5 -14.9 10.35 L-11.25 6.05 -11.2 6.05 Q-9.85 3.75 -7.1 0.5 L-5.95 -0.8 Q-5.65 -0.5 -5.5 0.05 -4.25 4.7 -8.0 9.3 -12.05 14.25 -16.85 13.9 L-17.4 13.8" fill="#403d43" fill-rule="evenodd" stroke="none"/>
      <path d="M-10.4 -1.45 Q-8.45 -1.15 -7.05 -0.15 -5.55 3.7 -9.2 8.2 -12.9 12.7 -17.0 12.3 -18.2 11.1 -18.85 9.15 -20.1 5.25 -17.25 1.6 -14.35 -2.0 -10.4 -1.45" fill="#fff9f6" fill-rule="evenodd" stroke="none"/>
      <path d="M11.85 -2.15 Q15.2 -1.75 17.75 1.35 20.65 4.85 20.0 8.8 19.5 11.8 17.6 13.75 17.15 12.45 16.0 10.8 13.85 8.1 13.0 6.65 11.5 4.2 9.15 1.55 L6.5 -0.95 Q9.05 -2.4 11.85 -2.15" fill="#1c191d" fill-rule="evenodd" stroke="none"/>
      <path d="M15.6 11.1 Q16.8 12.85 17.15 14.15 L16.75 14.2 16.7 14.2 Q11.9 14.6 7.8 9.7 5.5 6.85 5.1 3.75 4.8 1.75 5.35 0.15 L5.4 0.05 6.05 -0.7 Q7.15 0.05 8.8 1.9 L12.55 6.9 Q13.45 8.4 15.6 11.1" fill="#403d43" fill-rule="evenodd" stroke="none"/>
      <path d="M16.35 12.65 Q12.25 13.1 8.55 8.65 4.8 4.15 6.3 0.3 L9.65 -1.05 Q13.55 -1.65 16.5 1.95 19.45 5.6 18.2 9.5 17.55 11.45 16.35 12.65" fill="#fff9f6" fill-rule="evenodd" stroke="none"/>
      <path d="M-19.25 7.0 Q-18.2 9.75 -15.3 8.65 -13.9 8.1 -9.9 4.65 -6.75 1.85 -6.85 2.8 -7.15 5.6 -9.25 8.2 -12.95 12.7 -17.05 12.3 -19.2 10.15 -19.25 7.0" fill="#d4d2d4" fill-rule="evenodd" stroke="none"/>
      <path d="M16.3 12.7 Q13.8 12.95 10.95 10.95 10.8 10.85 13.2 8.35 16.15 5.3 16.45 1.95 19.4 5.6 18.15 9.5 17.5 11.45 16.3 12.7" fill="#d4d2d4" fill-rule="evenodd" stroke="none"/>
      <path d="M-8.05 -0.75 Q-7.85 3.1 -11.2 6.9 -14.55 10.7 -18.0 10.9 L-18.75 9.45 Q-15.95 8.85 -12.7 5.4 -9.4 1.95 -9.6 -1.3 L-8.05 -0.75" fill="#ff0000" fill-rule="evenodd" stroke="none"/>
      <path d="M7.4 -0.3 L8.9 -0.85 9.25 1.15 Q10.0 3.65 12.05 5.8 15.35 9.2 18.05 9.8 L17.35 11.25 Q13.95 11.05 10.6 7.3 8.5 4.95 7.75 2.1 L7.4 -0.3" fill="#ff0000" fill-rule="evenodd" stroke="none"/>
      <path d="M-15.3 8.65 Q-13.75 8.05 -9.3 4.1 -10.05 5.65 -11.2 6.9 -14.55 10.7 -18.0 10.9 L-18.75 9.45 -17.2 8.85 -15.3 8.65" fill="#c00000" fill-rule="evenodd" stroke="none"/>
      <path d="M18.0 9.8 L17.3 11.25 Q14.85 10.9 12.5 9.05 L13.95 7.5 Q15.95 9.1 18.0 9.8" fill="#c00000" fill-rule="evenodd" stroke="none"/>
      <path d="M13.15 13.5 L14.4 18.7 13.0 19.35 12.7 18.05 12.7 18.0 12.25 15.65 12.25 15.6 11.95 14.35 11.65 13.1 13.1 13.5 13.15 13.5" fill="#403d43" fill-rule="evenodd" stroke="none"/>
      <path d="M-13.4 13.35 Q-12.95 13.35 -11.95 12.8 L-12.65 19.25 -14.15 18.75 -13.4 13.35" fill="#403d43" fill-rule="evenodd" stroke="none"/>
      <path d="M5.1 2.95 L5.1 3.55 -0.3 5.65 -5.3 3.7 -5.45 3.45 -0.4 4.75 5.1 2.95" fill="#000000" fill-rule="evenodd" stroke="none"/>
      <path d="M2.0 4.75 L1.65 4.85 -1.05 0.55 3.2 4.35 2.0 4.75" fill="#fff9f6" fill-rule="evenodd" stroke="none"/>
    </g>
  </defs>
</svg>
